X:621
%%etbk:tnset id:365,pos:1,rep:3x,ant:
%%etbk:pldat 2016-08-18T19:21,2016-08-17T16:55,2016-08-16T16:59,2016-08-15T19:40,2016-06-08T16:43,2016-06-07T16:47,2016-06-04T15:58,2016-06-02T18:59,2016-05-31T17:14,2016-05-19T19:12,2016-05-18T17:14,2016-05-17T16:51,2016-05-16T15:12,2016-05-14T16:41,2016-05-10T18:50,2016-03-02T16:58,2016-03-01T16:46,2016-02-27T14:08,2016-02-04T19:29,2016-02-03T16:41,2016-02-02T17:40,2016-01-30T13:45,2016-01-26T16:50,2016-01-17T13:37,2015-11-20T17:08,2015-11-18T16:49,2015-11-17T16:51,2015-11-15T15:03,2015-11-14T15:34,2015-11-11T15:27,2015-11-09T19:06,2015-09-10T15:52,2015-09-09T16:04,2015-09-08T18:27,2015-09-03T15:41,2015-09-02T15:41,2015-09-01T15:56,2015-08-31T18:17,2015-08-30T14:10,2015-08-28T19:33,2015-08-27T18:34,2015-08-26T15:25,2015-08-06T17:43,2015-08-05T16:18,2015-08-04T16:48,2015-08-03T18:23,2015-08-02T10:52,2015-08-01T16:07,2015-07-29T16:15,2015-07-23T18:30,2015-06-26T17:07,2015-06-18T18:12,2015-06-16T16:17,2015-05-07T18:52,2015-04-16T19:12,2015-04-15T16:35,2015-04-13T18:50,2015-04-12T11:18,2015-04-11T14:33,2015-03-19T19:03,2015-03-18T16:50,2015-03-16T19:17,2015-03-15T13:38,2015-03-11T15:35,2015-03-10T18:20,2015-03-06T16:29,2015-03-04T17:27,2015-02-22T15:35,2015-02-21T16:55,2015-02-19T19:44,2015-02-18T16:10,2015-02-16T18:16,2015-02-12T19:22,2015-02-11T17:37,2015-02-03T15:57,2015-02-01T13:49,2015-01-27T15:39,2015-01-21T17:18,2015-01-14T16:22,2015-01-12T18:48,2015-01-10T15:21,2015-01-07T16:35,2015-01-06T18:20,2014-12-29T16:24,2014-12-29T16:18,2014-12-28T13:52,2014-12-27T13:34,2014-12-15T15:50,2014-12-10T15:55,2014-12-04T18:45,2014-11-24T15:59
T:Bring Back The Buailse
Z: Piano Box Version by Martin Fleischmann
H: Created 2015-05-28 /  Last Modified 2015-08-08
C:David Gilsenan
L:1/8
Q:1/4=120
M:4/4
K: Dmin
R: song
|:"dm" z2 !5!AA !3!F2 !1!D2 |"gm" z !2!ABA- AB !1!G2 |"A" z !2!ABA- A!1!G!2!F!1!G |"dm" !2!AABA z !1!G!3!FE |
"dm" D2 AA F2 D2 | "gm" z ABA- AB G2 |"A" z ABA- AGFE |1"dm" D2 E2 F2 G2 :|2"dm" D2 z2 z4 || 
|:"dm" z2[DF][DF]z2[DF][DF] |"gm" z2[DG][DG]z2[DG][DG] |"A" z2[EG][EG]z2[EG][EG] |"dm" z2[DF][DF]z2[DF][DF]:|
|"dm" z2[Ad][Ad]z2[Ad][Ad] |"gm" z2[Gd][Gd]z2[Gd][Gd] |"A" z2[Ae][Ae]z2[Ae][Ae] |"dm" z2[Ad][Ad]z2[Ad][Ad]|
|"dm" A2AG ABAG |"gm" G3A GFDF |"A"G2GA GFEF  |"dm"D8 |


